P3
96 24
255
54 53 52   54 53 52   54 53 52   54 53 52   54 53 52   54 53 52   54 53 52   54 53 52   54 53 52   54 53 52   54 53 52   54 53 52   54 53 52   54 53 52   54 53 52   54 53 52   54 53 52   54 53 52   54 53 52   54 53 52   54 53 52   54 53 52   54 53 52   54 53 52   54 53 52   54 53 52   54 53 52   54 53 52   54 53 52   54 53 52   54 53 52   54 53 52   54 53 52   54 53 52   54 53 52   54 53 52   54 53 52   54 53 52   54 53 52   54 53 52   54 53 52   54 53 52   54 53 52   54 53 52   54 53 52   54 53 52   54 53 52   54 53 52   54 53 52   54 53 52   54 53 52   54 53 52   54 53 52   54 53 52   54 53 52   54 53 52   54 53 52   54 53 52   54 53 52   54 53 52   54 53 52   54 53 52   54 53 52   54 53 52   54 53 52   54 53 52   54 53 52   54 53 52   54 53 52   54 53 52   54 53 52   54 53 52   54 53 52   54 53 52   54 53 52   54 53 52   54 53 52   54 53 52   54 53 52   54 53 52   54 53 52   54 53 52   54 53 52   54 53 52   54 53 52   54 53 52   54 53 52   54 53 52   54 53 52   54 53 52   54 53 52   54 53 52   54 53 52   54 53 52   54 53 52   54 53 52
54 53 52   54 53 52   54 53 52   54 53 52   54 53 52   54 53 52   54 53 52   54 53 52   54 53 52   54 53 52   54 53 52   54 53 52   54 53 52   54 53 52   54 53 52   54 53 52   54 53 52   54 53 52   54 53 52   54 53 52   54 53 52   54 53 52   54 53 52   54 53 52   54 53 52   54 53 52   54 53 52   54 53 52   54 53 52   54 53 52   54 53 52   54 53 52   54 53 52   54 53 52   54 53 52   54 53 52   54 53 52   54 53 52   112 86 42   112 86 42   112 86 42   112 86 42   112 86 42   112 86 42   112 86 42   112 86 42   112 86 42   112 86 42   112 86 42   112 86 42   112 86 42   112 86 42   112 86 42   112 86 42   112 86 42   112 86 42   112 86 42   112 86 42   54 53 52   54 53 52   54 53 52   54 53 52   54 53 52   54 53 52   54 53 52   54 53 52   54 53 52   54 53 52   54 53 52   54 53 52   54 53 52   54 53 52   54 53 52   54 53 52   54 53 52   54 53 52   54 53 52   54 53 52   54 53 52   54 53 52   54 53 52   54 53 52   54 53 52   54 53 52   54 53 52   54 53 52   54 53 52   54 53 52   54 53 52   54 53 52   54 53 52   54 53 52   54 53 52   54 53 52   54 53 52   54 53 52
54 53 52   54 53 52   54 53 52   54 53 52   54 53 52   54 53 52   54 53 52   54 53 52   54 53 52   54 53 52   54 53 52   54 53 52   54 53 52   54 53 52   54 53 52   54 53 52   54 53 52   54 53 52   54 53 52   54 53 52   54 53 52   54 53 52   54 53 52   54 53 52   54 53 52   112 86 42   112 86 42   112 86 42   112 86 42   112 86 42   112 86 42   112 86 42   112 86 42   112 86 42   250 221 149   250 221 149   250 221 149   250 221 149   250 221 149   250 221 149   250 221 149   250 221 149   250 221 149   250 221 149   250 221 149   250 221 149   250 221 149   250 221 149   250 221 149   250 221 149   250 221 149   250 221 149   250 221 149   250 221 149   250 221 149   250 221 149   250 221 149   250 221 149   250 221 149   250 221 149   250 221 149   250 221 149   112 86 42   112 86 42   112 86 42   112 86 42   112 86 42   112 86 42   112 86 42   112 86 42   112 86 42   54 53 52   54 53 52   54 53 52   54 53 52   54 53 52   54 53 52   54 53 52   54 53 52   54 53 52   54 53 52   54 53 52   54 53 52   54 53 52   54 53 52   54 53 52   54 53 52   54 53 52   54 53 52   54 53 52   54 53 52   54 53 52   54 53 52   54 53 52   54 53 52   54 53 52
54 53 52   54 53 52   54 53 52   54 53 52   54 53 52   54 53 52   54 53 52   54 53 52   54 53 52   54 53 52   54 53 52   54 53 52   54 53 52   54 53 52   54 53 52   54 53 52   54 53 52   54 53 52   112 86 42   112 86 42   112 86 42   112 86 42   112 86 42   112 86 42   223 197 133   237 207 137   237 207 137   237 207 137   237 207 137   237 207 137   237 207 137   237 207 137   237 207 137   237 207 137   237 207 137   237 207 137   237 207 137   237 207 137   237 207 137   237 207 137   237 207 137   237 207 137   237 207 137   237 207 137   237 207 137   237 207 137   237 207 137   237 207 137   237 207 137   237 207 137   237 207 137   237 207 137   237 207 137   237 207 137   237 207 137   237 207 137   237 207 137   237 207 137   237 207 137   237 207 137   237 207 137   237 207 137   237 207 137   237 207 137   237 207 137   237 207 137   237 207 137   237 207 137   237 207 137   237 207 137   237 207 137   223 197 133   112 86 42   112 86 42   112 86 42   112 86 42   112 86 42   112 86 42   54 53 52   54 53 52   54 53 52   54 53 52   54 53 52   54 53 52   54 53 52   54 53 52   54 53 52   54 53 52   54 53 52   54 53 52   54 53 52   54 53 52   54 53 52   54 53 52   54 53 52   54 53 52
54 53 52   54 53 52   54 53 52   54 53 52   54 53 52   54 53 52   54 53 52   54 53 52   54 53 52   54 53 52   54 53 52   54 53 52   54 53 52   112 86 42   112 86 42   112 86 42   112 86 42   112 86 42   220 194 129   220 194 129   220 194 129   220 194 129   220 194 129   220 194 129   220 194 129   234 204 133   234 204 133   234 204 133   234 204 133   234 204 133   234 204 133   234 204 133   234 204 133   234 204 133   234 204 133   234 204 133   234 204 133   234 204 133   234 204 133   234 204 133   234 204 133   234 204 133   234 204 133   234 204 133   234 204 133   234 204 133   234 204 133   234 204 133   234 204 133   234 204 133   234 204 133   234 204 133   234 204 133   234 204 133   234 204 133   234 204 133   234 204 133   234 204 133   234 204 133   234 204 133   234 204 133   234 204 133   234 204 133   234 204 133   234 204 133   234 204 133   234 204 133   234 204 133   234 204 133   234 204 133   234 204 133   220 194 129   220 194 129   220 194 129   220 194 129   220 194 129   220 194 129   220 194 129   112 86 42   112 86 42   112 86 42   112 86 42   112 86 42   54 53 52   54 53 52   54 53 52   54 53 52   54 53 52   54 53 52   54 53 52   54 53 52   54 53 52   54 53 52   54 53 52   54 53 52   54 53 52
54 53 52   54 53 52   54 53 52   54 53 52   54 53 52   54 53 52   54 53 52   54 53 52   54 53 52   112 86 42   112 86 42   112 86 42   112 86 42   217 190 125   217 190 125   217 190 125   217 190 125   217 190 125   217 190 125   217 190 125   217 190 125   217 190 125   217 190 125   217 190 125   217 190 125   231 200 129   231 200 129   231 200 129   231 200 129   231 200 129   231 200 129   231 200 129   231 200 129   231 200 129   231 200 129   231 200 129   231 200 129   231 200 129   231 200 129   231 200 129   231 200 129   231 200 129   231 200 129   231 200 129   231 200 129   231 200 129   231 200 129   231 200 129   231 200 129   231 200 129   231 200 129   231 200 129   231 200 129   231 200 129   231 200 129   231 200 129   231 200 129   231 200 129   231 200 129   231 200 129   231 200 129   231 200 129   231 200 129   231 200 129   231 200 129   231 200 129   231 200 129   231 200 129   231 200 129   231 200 129   231 200 129   217 190 125   217 190 125   217 190 125   217 190 125   217 190 125   217 190 125   217 190 125   217 190 125   217 190 125   217 190 125   217 190 125   217 190 125   112 86 42   112 86 42   112 86 42   112 86 42   54 53 52   54 53 52   54 53 52   54 53 52   54 53 52   54 53 52   54 53 52   54 53 52   54 53 52
54 53 52   54 53 52   54 53 52   54 53 52   54 53 52   54 53 52   112 86 42   112 86 42   112 86 42   112 86 42   215 187 122   215 187 122   215 187 122   215 187 122   215 187 122   215 187 122   215 187 122   215 187 122   215 187 122   215 187 122   215 187 122   215 187 122   215 187 122   215 187 122   215 187 122   229 197 126   229 197 126   229 197 126   229 197 126   229 197 126   229 197 126   229 197 126   229 197 126   229 197 126   229 197 126   229 197 126   229 197 126   229 197 126   229 197 126   229 197 126   229 197 126   229 197 126   229 197 126   229 197 126   229 197 126   229 197 126   229 197 126   229 197 126   229 197 126   229 197 126   229 197 126   229 197 126   229 197 126   229 197 126   229 197 126   229 197 126   229 197 126   229 197 126   229 197 126   229 197 126   229 197 126   229 197 126   229 197 126   229 197 126   229 197 126   229 197 126   229 197 126   229 197 126   229 197 126   229 197 126   229 197 126   215 187 122   215 187 122   215 187 122   215 187 122   215 187 122   215 187 122   215 187 122   215 187 122   215 187 122   215 187 122   215 187 122   215 187 122   215 187 122   215 187 122   215 187 122   112 86 42   112 86 42   112 86 42   112 86 42   54 53 52   54 53 52   54 53 52   54 53 52   54 53 52   54 53 52
54 53 52   54 53 52   54 53 52   112 86 42   112 86 42   112 86 42   112 86 42   212 183 118   212 183 118   212 183 118   212 183 118   212 183 118   212 183 118   212 183 118   212 183 118   212 183 118   212 183 118   212 183 118   212 183 118   212 183 118   212 183 118   212 183 118   212 183 118   212 183 118   212 183 118   226 193 122   226 193 122   226 193 122   226 193 122   226 193 122   226 193 122   226 193 122   226 193 122   226 193 122   226 193 122   226 193 122   226 193 122   226 193 122   226 193 122   226 193 122   226 193 122   226 193 122   226 193 122   226 193 122   226 193 122   226 193 122   226 193 122   226 193 122   226 193 122   226 193 122   226 193 122   226 193 122   226 193 122   226 193 122   226 193 122   226 193 122   226 193 122   226 193 122   226 193 122   226 193 122   226 193 122   226 193 122   226 193 122   226 193 122   226 193 122   226 193 122   226 193 122   226 193 122   226 193 122   226 193 122   226 193 122   212 183 118   212 183 118   212 183 118   212 183 118   212 183 118   212 183 118   212 183 118   212 183 118   212 183 118   212 183 118   212 183 118   212 183 118   212 183 118   212 183 118   212 183 118   212 183 118   212 183 118   212 183 118   112 86 42   112 86 42   112 86 42   112 86 42   54 53 52   54 53 52   54 53 52
54 53 52   112 86 42   112 86 42   112 86 42   112 86 42   209 179 114   209 179 114   209 179 114   209 179 114   209 179 114   209 179 114   209 179 114   209 179 114   209 179 114   209 179 114   209 179 114   209 179 114   209 179 114   209 179 114   209 179 114   209 179 114   209 179 114   209 179 114   209 179 114   209 179 114   223 189 118   223 189 118   223 189 118   223 189 118   223 189 118   223 189 118   223 189 118   223 189 118   223 189 118   223 189 118   223 189 118   223 189 118   223 189 118   223 189 118   223 189 118   223 189 118   223 189 118   223 189 118   223 189 118   223 189 118   223 189 118   223 189 118   223 189 118   223 189 118   223 189 118   223 189 118   223 189 118   223 189 118   223 189 118   223 189 118   223 189 118   223 189 118   223 189 118   223 189 118   223 189 118   223 189 118   223 189 118   223 189 118   223 189 118   223 189 118   223 189 118   223 189 118   223 189 118   223 189 118   223 189 118   223 189 118   209 179 114   209 179 114   209 179 114   209 179 114   209 179 114   209 179 114   209 179 114   209 179 114   209 179 114   209 179 114   209 179 114   209 179 114   209 179 114   209 179 114   209 179 114   209 179 114   209 179 114   209 179 114   209 179 114   209 179 114   112 86 42   112 86 42   112 86 42   112 86 42   54 53 52
112 86 42   112 86 42   112 86 42   206 176 110   206 176 110   206 176 110   206 176 110   206 176 110   206 176 110   206 176 110   206 176 110   206 176 110   206 176 110   206 176 110   206 176 110   206 176 110   206 176 110   206 176 110   206 176 110   206 176 110   206 176 110   206 176 110   206 176 110   206 176 110   206 176 110   220 186 114   220 186 114   220 186 114   220 186 114   220 186 114   220 186 114   220 186 114   220 186 114   220 186 114   220 186 114   220 186 114   220 186 114   220 186 114   220 186 114   220 186 114   220 186 114   220 186 114   220 186 114   220 186 114   220 186 114   220 186 114   220 186 114   220 186 114   220 186 114   220 186 114   220 186 114   220 186 114   220 186 114   220 186 114   220 186 114   220 186 114   220 186 114   220 186 114   220 186 114   220 186 114   220 186 114   220 186 114   220 186 114   220 186 114   220 186 114   220 186 114   220 186 114   220 186 114   220 186 114   220 186 114   220 186 114   206 176 110   206 176 110   206 176 110   206 176 110   206 176 110   206 176 110   206 176 110   206 176 110   206 176 110   206 176 110   206 176 110   206 176 110   206 176 110   206 176 110   206 176 110   206 176 110   206 176 110   206 176 110   206 176 110   206 176 110   206 176 110   206 176 110   112 86 42   112 86 42   112 86 42
112 86 42   112 86 42   112 86 42   203 172 106   203 172 106   203 172 106   203 172 106   203 172 106   203 172 106   203 172 106   203 172 106   203 172 106   203 172 106   203 172 106   203 172 106   203 172 106   203 172 106   203 172 106   203 172 106   203 172 106   203 172 106   203 172 106   203 172 106   203 172 106   203 172 106   217 182 110   217 182 110   217 182 110   217 182 110   217 182 110   217 182 110   217 182 110   217 182 110   217 182 110   217 182 110   217 182 110   217 182 110   217 182 110   217 182 110   217 182 110   217 182 110   217 182 110   217 182 110   217 182 110   217 182 110   217 182 110   217 182 110   217 182 110   217 182 110   217 182 110   217 182 110   217 182 110   217 182 110   217 182 110   217 182 110   217 182 110   217 182 110   217 182 110   217 182 110   217 182 110   217 182 110   217 182 110   217 182 110   217 182 110   217 182 110   217 182 110   217 182 110   217 182 110   217 182 110   217 182 110   217 182 110   203 172 106   203 172 106   203 172 106   203 172 106   203 172 106   203 172 106   203 172 106   203 172 106   203 172 106   203 172 106   203 172 106   203 172 106   203 172 106   203 172 106   203 172 106   203 172 106   203 172 106   203 172 106   203 172 106   203 172 106   203 172 106   203 172 106   112 86 42   112 86 42   112 86 42
112 86 42   112 86 42   200 169 102   200 169 102   200 169 102   200 169 102   200 169 102   200 169 102   200 169 102   200 169 102   200 169 102   200 169 102   200 169 102   200 169 102   200 169 102   200 169 102   200 169 102   200 169 102   200 169 102   200 169 102   200 169 102   200 169 102   200 169 102   200 169 102   200 169 102   214 179 106   214 179 106   214 179 106   214 179 106   214 179 106   214 179 106   214 179 106   214 179 106   214 179 106   214 179 106   214 179 106   214 179 106   214 179 106   214 179 106   214 179 106   214 179 106   214 179 106   214 179 106   214 179 106   214 179 106   214 179 106   214 179 106   214 179 106   214 179 106   214 179 106   214 179 106   214 179 106   214 179 106   214 179 106   214 179 106   214 179 106   214 179 106   214 179 106   214 179 106   214 179 106   214 179 106   214 179 106   214 179 106   214 179 106   214 179 106   214 179 106   214 179 106   214 179 106   214 179 106   214 179 106   214 179 106   200 169 102   200 169 102   200 169 102   200 169 102   200 169 102   200 169 102   200 169 102   200 169 102   200 169 102   200 169 102   200 169 102   200 169 102   200 169 102   200 169 102   200 169 102   200 169 102   200 169 102   200 169 102   200 169 102   200 169 102   200 169 102   200 169 102   200 169 102   112 86 42   112 86 42
112 86 42   112 86 42   197 165 98   197 165 98   197 165 98   197 165 98   197 165 98   197 165 98   197 165 98   197 165 98   197 165 98   197 165 98   197 165 98   197 165 98   197 165 98   197 165 98   197 165 98   197 165 98   197 165 98   197 165 98   197 165 98   197 165 98   197 165 98   197 165 98   197 165 98   211 175 102   211 175 102   211 175 102   211 175 102   211 175 102   211 175 102   211 175 102   211 175 102   211 175 102   211 175 102   211 175 102   211 175 102   211 175 102   211 175 102   211 175 102   211 175 102   211 175 102   211 175 102   211 175 102   211 175 102   211 175 102   211 175 102   211 175 102   211 175 102   211 175 102   211 175 102   211 175 102   211 175 102   211 175 102   211 175 102   211 175 102   211 175 102   211 175 102   211 175 102   211 175 102   211 175 102   211 175 102   211 175 102   211 175 102   211 175 102   211 175 102   211 175 102   211 175 102   211 175 102   211 175 102   211 175 102   197 165 98   197 165 98   197 165 98   197 165 98   197 165 98   197 165 98   197 165 98   197 165 98   197 165 98   197 165 98   197 165 98   197 165 98   197 165 98   197 165 98   197 165 98   197 165 98   197 165 98   197 165 98   197 165 98   197 165 98   197 165 98   197 165 98   197 165 98   112 86 42   112 86 42
112 86 42   112 86 42   112 86 42   194 162 94   194 162 94   194 162 94   194 162 94   194 162 94   194 162 94   194 162 94   194 162 94   194 162 94   194 162 94   194 162 94   194 162 94   194 162 94   194 162 94   194 162 94   194 162 94   194 162 94   194 162 94   194 162 94   194 162 94   194 162 94   194 162 94   208 172 98   208 172 98   208 172 98   208 172 98   208 172 98   208 172 98   208 172 98   208 172 98   208 172 98   208 172 98   208 172 98   208 172 98   208 172 98   208 172 98   208 172 98   208 172 98   208 172 98   208 172 98   208 172 98   208 172 98   208 172 98   208 172 98   208 172 98   208 172 98   208 172 98   208 172 98   208 172 98   208 172 98   208 172 98   208 172 98   208 172 98   208 172 98   208 172 98   208 172 98   208 172 98   208 172 98   208 172 98   208 172 98   208 172 98   208 172 98   208 172 98   208 172 98   208 172 98   208 172 98   208 172 98   208 172 98   194 162 94   194 162 94   194 162 94   194 162 94   194 162 94   194 162 94   194 162 94   194 162 94   194 162 94   194 162 94   194 162 94   194 162 94   194 162 94   194 162 94   194 162 94   194 162 94   194 162 94   194 162 94   194 162 94   194 162 94   194 162 94   194 162 94   112 86 42   112 86 42   112 86 42
112 86 42   112 86 42   112 86 42   191 158 90   191 158 90   191 158 90   191 158 90   191 158 90   191 158 90   191 158 90   191 158 90   191 158 90   191 158 90   191 158 90   191 158 90   191 158 90   191 158 90   191 158 90   191 158 90   191 158 90   191 158 90   191 158 90   191 158 90   191 158 90   191 158 90   205 168 94   205 168 94   205 168 94   205 168 94   205 168 94   205 168 94   205 168 94   205 168 94   205 168 94   205 168 94   205 168 94   205 168 94   205 168 94   205 168 94   205 168 94   205 168 94   205 168 94   205 168 94   205 168 94   205 168 94   205 168 94   205 168 94   205 168 94   205 168 94   205 168 94   205 168 94   205 168 94   205 168 94   205 168 94   205 168 94   205 168 94   205 168 94   205 168 94   205 168 94   205 168 94   205 168 94   205 168 94   205 168 94   205 168 94   205 168 94   205 168 94   205 168 94   205 168 94   205 168 94   205 168 94   205 168 94   191 158 90   191 158 90   191 158 90   191 158 90   191 158 90   191 158 90   191 158 90   191 158 90   191 158 90   191 158 90   191 158 90   191 158 90   191 158 90   191 158 90   191 158 90   191 158 90   191 158 90   191 158 90   191 158 90   191 158 90   191 158 90   191 158 90   112 86 42   112 86 42   112 86 42
54 53 52   112 86 42   112 86 42   112 86 42   112 86 42   188 155 86   188 155 86   188 155 86   188 155 86   188 155 86   188 155 86   188 155 86   188 155 86   188 155 86   188 155 86   188 155 86   188 155 86   188 155 86   188 155 86   188 155 86   188 155 86   188 155 86   188 155 86   188 155 86   188 155 86   202 165 90   202 165 90   202 165 90   202 165 90   202 165 90   202 165 90   202 165 90   202 165 90   202 165 90   202 165 90   202 165 90   202 165 90   202 165 90   202 165 90   202 165 90   202 165 90   202 165 90   202 165 90   202 165 90   202 165 90   202 165 90   202 165 90   202 165 90   202 165 90   202 165 90   202 165 90   202 165 90   202 165 90   202 165 90   202 165 90   202 165 90   202 165 90   202 165 90   202 165 90   202 165 90   202 165 90   202 165 90   202 165 90   202 165 90   202 165 90   202 165 90   202 165 90   202 165 90   202 165 90   202 165 90   202 165 90   188 155 86   188 155 86   188 155 86   188 155 86   188 155 86   188 155 86   188 155 86   188 155 86   188 155 86   188 155 86   188 155 86   188 155 86   188 155 86   188 155 86   188 155 86   188 155 86   188 155 86   188 155 86   188 155 86   188 155 86   112 86 42   112 86 42   112 86 42   112 86 42   54 53 52
54 53 52   54 53 52   54 53 52   112 86 42   112 86 42   112 86 42   112 86 42   185 151 82   185 151 82   185 151 82   185 151 82   185 151 82   185 151 82   185 151 82   185 151 82   185 151 82   185 151 82   185 151 82   185 151 82   185 151 82   185 151 82   185 151 82   185 151 82   185 151 82   185 151 82   199 161 86   199 161 86   199 161 86   199 161 86   199 161 86   199 161 86   199 161 86   199 161 86   199 161 86   199 161 86   199 161 86   199 161 86   199 161 86   199 161 86   199 161 86   199 161 86   199 161 86   199 161 86   199 161 86   199 161 86   199 161 86   199 161 86   199 161 86   199 161 86   199 161 86   199 161 86   199 161 86   199 161 86   199 161 86   199 161 86   199 161 86   199 161 86   199 161 86   199 161 86   199 161 86   199 161 86   199 161 86   199 161 86   199 161 86   199 161 86   199 161 86   199 161 86   199 161 86   199 161 86   199 161 86   199 161 86   185 151 82   185 151 82   185 151 82   185 151 82   185 151 82   185 151 82   185 151 82   185 151 82   185 151 82   185 151 82   185 151 82   185 151 82   185 151 82   185 151 82   185 151 82   185 151 82   185 151 82   185 151 82   112 86 42   112 86 42   112 86 42   112 86 42   54 53 52   54 53 52   54 53 52
54 53 52   54 53 52   54 53 52   54 53 52   54 53 52   54 53 52   112 86 42   112 86 42   112 86 42   112 86 42   182 147 78   182 147 78   182 147 78   182 147 78   182 147 78   182 147 78   182 147 78   182 147 78   182 147 78   182 147 78   182 147 78   182 147 78   182 147 78   182 147 78   182 147 78   196 157 82   196 157 82   196 157 82   196 157 82   196 157 82   196 157 82   196 157 82   196 157 82   196 157 82   196 157 82   196 157 82   196 157 82   196 157 82   196 157 82   196 157 82   196 157 82   196 157 82   196 157 82   196 157 82   196 157 82   196 157 82   196 157 82   196 157 82   196 157 82   196 157 82   196 157 82   196 157 82   196 157 82   196 157 82   196 157 82   196 157 82   196 157 82   196 157 82   196 157 82   196 157 82   196 157 82   196 157 82   196 157 82   196 157 82   196 157 82   196 157 82   196 157 82   196 157 82   196 157 82   196 157 82   196 157 82   182 147 78   182 147 78   182 147 78   182 147 78   182 147 78   182 147 78   182 147 78   182 147 78   182 147 78   182 147 78   182 147 78   182 147 78   182 147 78   182 147 78   182 147 78   112 86 42   112 86 42   112 86 42   112 86 42   54 53 52   54 53 52   54 53 52   54 53 52   54 53 52   54 53 52
54 53 52   54 53 52   54 53 52   54 53 52   54 53 52   54 53 52   54 53 52   54 53 52   54 53 52   112 86 42   112 86 42   112 86 42   112 86 42   180 144 75   180 144 75   180 144 75   180 144 75   180 144 75   180 144 75   180 144 75   180 144 75   180 144 75   180 144 75   180 144 75   180 144 75   194 154 79   194 154 79   194 154 79   194 154 79   194 154 79   194 154 79   194 154 79   194 154 79   194 154 79   194 154 79   194 154 79   194 154 79   194 154 79   194 154 79   194 154 79   194 154 79   194 154 79   194 154 79   194 154 79   194 154 79   194 154 79   194 154 79   194 154 79   194 154 79   194 154 79   194 154 79   194 154 79   194 154 79   194 154 79   194 154 79   194 154 79   194 154 79   194 154 79   194 154 79   194 154 79   194 154 79   194 154 79   194 154 79   194 154 79   194 154 79   194 154 79   194 154 79   194 154 79   194 154 79   194 154 79   194 154 79   180 144 75   180 144 75   180 144 75   180 144 75   180 144 75   180 144 75   180 144 75   180 144 75   180 144 75   180 144 75   180 144 75   180 144 75   112 86 42   112 86 42   112 86 42   112 86 42   54 53 52   54 53 52   54 53 52   54 53 52   54 53 52   54 53 52   54 53 52   54 53 52   54 53 52
54 53 52   54 53 52   54 53 52   54 53 52   54 53 52   54 53 52   54 53 52   54 53 52   54 53 52   54 53 52   54 53 52   54 53 52   54 53 52   112 86 42   112 86 42   112 86 42   112 86 42   112 86 42   177 140 71   177 140 71   177 140 71   177 140 71   177 140 71   177 140 71   177 140 71   191 150 75   191 150 75   191 150 75   191 150 75   191 150 75   191 150 75   191 150 75   191 150 75   191 150 75   191 150 75   191 150 75   191 150 75   191 150 75   191 150 75   191 150 75   191 150 75   191 150 75   191 150 75   191 150 75   191 150 75   191 150 75   191 150 75   191 150 75   191 150 75   191 150 75   191 150 75   191 150 75   191 150 75   191 150 75   191 150 75   191 150 75   191 150 75   191 150 75   191 150 75   191 150 75   191 150 75   191 150 75   191 150 75   191 150 75   191 150 75   191 150 75   191 150 75   191 150 75   191 150 75   191 150 75   191 150 75   177 140 71   177 140 71   177 140 71   177 140 71   177 140 71   177 140 71   177 140 71   112 86 42   112 86 42   112 86 42   112 86 42   112 86 42   54 53 52   54 53 52   54 53 52   54 53 52   54 53 52   54 53 52   54 53 52   54 53 52   54 53 52   54 53 52   54 53 52   54 53 52   54 53 52
54 53 52   54 53 52   54 53 52   54 53 52   54 53 52   54 53 52   54 53 52   54 53 52   54 53 52   54 53 52   54 53 52   54 53 52   54 53 52   54 53 52   54 53 52   54 53 52   54 53 52   54 53 52   112 86 42   112 86 42   112 86 42   112 86 42   112 86 42   112 86 42   174 137 67   188 147 71   188 147 71   188 147 71   188 147 71   188 147 71   188 147 71   188 147 71   188 147 71   188 147 71   188 147 71   188 147 71   188 147 71   188 147 71   188 147 71   188 147 71   188 147 71   188 147 71   188 147 71   188 147 71   188 147 71   188 147 71   188 147 71   188 147 71   188 147 71   188 147 71   188 147 71   188 147 71   188 147 71   188 147 71   188 147 71   188 147 71   188 147 71   188 147 71   188 147 71   188 147 71   188 147 71   188 147 71   188 147 71   188 147 71   188 147 71   188 147 71   188 147 71   188 147 71   188 147 71   188 147 71   188 147 71   174 137 67   112 86 42   112 86 42   112 86 42   112 86 42   112 86 42   112 86 42   54 53 52   54 53 52   54 53 52   54 53 52   54 53 52   54 53 52   54 53 52   54 53 52   54 53 52   54 53 52   54 53 52   54 53 52   54 53 52   54 53 52   54 53 52   54 53 52   54 53 52   54 53 52
54 53 52   54 53 52   54 53 52   54 53 52   54 53 52   54 53 52   54 53 52   54 53 52   54 53 52   54 53 52   54 53 52   54 53 52   54 53 52   54 53 52   54 53 52   54 53 52   54 53 52   54 53 52   54 53 52   54 53 52   54 53 52   54 53 52   54 53 52   54 53 52   54 53 52   112 86 42   112 86 42   112 86 42   112 86 42   112 86 42   112 86 42   112 86 42   112 86 42   112 86 42   185 143 67   185 143 67   185 143 67   185 143 67   185 143 67   185 143 67   185 143 67   185 143 67   185 143 67   185 143 67   185 143 67   185 143 67   185 143 67   185 143 67   185 143 67   185 143 67   185 143 67   185 143 67   185 143 67   185 143 67   185 143 67   185 143 67   185 143 67   185 143 67   185 143 67   185 143 67   185 143 67   185 143 67   112 86 42   112 86 42   112 86 42   112 86 42   112 86 42   112 86 42   112 86 42   112 86 42   112 86 42   54 53 52   54 53 52   54 53 52   54 53 52   54 53 52   54 53 52   54 53 52   54 53 52   54 53 52   54 53 52   54 53 52   54 53 52   54 53 52   54 53 52   54 53 52   54 53 52   54 53 52   54 53 52   54 53 52   54 53 52   54 53 52   54 53 52   54 53 52   54 53 52   54 53 52
54 53 52   54 53 52   54 53 52   54 53 52   54 53 52   54 53 52   54 53 52   54 53 52   54 53 52   54 53 52   54 53 52   54 53 52   54 53 52   54 53 52   54 53 52   54 53 52   54 53 52   54 53 52   54 53 52   54 53 52   54 53 52   54 53 52   54 53 52   54 53 52   54 53 52   54 53 52   54 53 52   54 53 52   54 53 52   54 53 52   54 53 52   54 53 52   54 53 52   54 53 52   54 53 52   54 53 52   54 53 52   54 53 52   112 86 42   112 86 42   112 86 42   112 86 42   112 86 42   112 86 42   112 86 42   112 86 42   112 86 42   112 86 42   112 86 42   112 86 42   112 86 42   112 86 42   112 86 42   112 86 42   112 86 42   112 86 42   112 86 42   112 86 42   54 53 52   54 53 52   54 53 52   54 53 52   54 53 52   54 53 52   54 53 52   54 53 52   54 53 52   54 53 52   54 53 52   54 53 52   54 53 52   54 53 52   54 53 52   54 53 52   54 53 52   54 53 52   54 53 52   54 53 52   54 53 52   54 53 52   54 53 52   54 53 52   54 53 52   54 53 52   54 53 52   54 53 52   54 53 52   54 53 52   54 53 52   54 53 52   54 53 52   54 53 52   54 53 52   54 53 52   54 53 52   54 53 52
54 53 52   54 53 52   54 53 52   54 53 52   54 53 52   54 53 52   54 53 52   54 53 52   54 53 52   54 53 52   54 53 52   54 53 52   54 53 52   54 53 52   54 53 52   54 53 52   54 53 52   54 53 52   54 53 52   54 53 52   54 53 52   54 53 52   54 53 52   54 53 52   54 53 52   54 53 52   54 53 52   54 53 52   54 53 52   54 53 52   54 53 52   54 53 52   54 53 52   54 53 52   54 53 52   54 53 52   54 53 52   54 53 52   54 53 52   54 53 52   54 53 52   54 53 52   54 53 52   54 53 52   54 53 52   54 53 52   54 53 52   54 53 52   54 53 52   54 53 52   54 53 52   54 53 52   54 53 52   54 53 52   54 53 52   54 53 52   54 53 52   54 53 52   54 53 52   54 53 52   54 53 52   54 53 52   54 53 52   54 53 52   54 53 52   54 53 52   54 53 52   54 53 52   54 53 52   54 53 52   54 53 52   54 53 52   54 53 52   54 53 52   54 53 52   54 53 52   54 53 52   54 53 52   54 53 52   54 53 52   54 53 52   54 53 52   54 53 52   54 53 52   54 53 52   54 53 52   54 53 52   54 53 52   54 53 52   54 53 52   54 53 52   54 53 52   54 53 52   54 53 52   54 53 52   54 53 52
